icons/lines/mouse-square.svg

<svg xmlns="http://www.w3.org/2000/svg" width="24" height="24" viewBox="0 0 24 24" fill="none" stroke="currentColor" stroke-width="2" stroke-linecap="round" stroke-linejoin="round" >
  <path d="M22 12V9C22 4 20 2 15 2H9C4 2 2 4 2 9V15C2 20 4 22 9 22H12"/>
  <path d="M20.9597 17.84L19.3297 18.39C18.8797 18.54 18.5197 18.89 18.3697 19.35L17.8197 20.98C17.3497 22.39 15.3697 22.36 14.9297 20.95L13.0797 15C12.7197 13.82 13.8097 12.72 14.9797 13.09L20.9397 14.94C22.3397 15.38 22.3597 17.37 20.9597 17.84Z"/>
  </svg>

<svg xmlns="http://www.w3.org/2000/svg" width="24" height="24" viewBox="0 0 24 24" fill="none" stroke="currentColor" stroke-width="2" stroke-linecap="round" stroke-linejoin="round">
  <path d="M19.33 18.39a1.5 1.5 0 0 0-.96.96l-.55 1.63c-.47 1.41-2.45 1.38-2.89-.03L13.08 15a1.525 1.525 0 0 1 1.9-1.91l5.96 1.85c1.4.44 1.42 2.43.02 2.9z" />
  <path d="M22 12V9c0-5-2-7-7-7H9C4 2 2 4 2 9v6c0 5 2 7 7 7h3" />
</svg>
